svgs/1F601.svg

<svg xmlns="http://www.w3.org/2000/svg" version="1.1" xmlns:xlink="http://www.w3.org/1999/xlink" preserveAspectRatio="none" x="0px" y="0px" width="72px" height="72px" viewBox="0 0 72 72">
<defs>
<g id="Layer0_0_FILL">
<path fill="#FCC21B" stroke="none" d="
M 127.65 93.35
Q 127.65 66.35 119.15 46.3 103.55 9.65 63.85 9.65 24.2 9.65 8.6 46.3 0.1 66.35 0.1 93.35 0.1 103.75 18.8 111.05 37.45 118.4 63.85 118.4 90.3 118.4 108.95 111.05 127.65 103.75 127.65 93.35 Z"/>
</g>

<g id="Layer0_1_FILL">
<path fill="#2F2F2F" stroke="none" d="
M 45 39.15
Q 43.8751953125 39.2548828125 42.75 39.3 39.8755859375 39.4767578125 37 39.5 35.875 39.51015625 34.75 39.5 34.2380859375 39.4947265625 33.7 39.45 31.3884765625 39.4443359375 29.05 39.3 27.9251953125 39.25546875 26.8 39.15 24.6625 38.9875 22.5 38.8 20.1755859375 38.5548828125 17.8 38.2 15.625 37.875 13.4 37.5 13.2099609375 37.4875 13 37.45 12.3 37.35 11.85 37.75 11.3 38.2 11.35 38.85 11.65 46.45 18.7 51.55 18.775 51.6041015625 18.85 51.65 19.933984375 52.4271484375 21.1 53.05 22.0109375 53.5873046875 22.95 54 24.6375 54.65 26.3 55.25 26.55 55.3546875 26.8 55.4 27.9015625 55.7255859375 29.05 55.95 31.7583984375 56.4953125 34.75 56.55 35.2953125 56.6 35.85 56.6
L 36 56.6
Q 36.79140625 56.6 37.55 56.55 40.1625 56.275 42.75 55.95 43.9001953125 55.7513671875 45 55.45 48.0478515625 54.600390625 50.7 53.1 51.8630859375 52.489453125 52.95 51.7 53.0755859375 51.6396484375 53.2 51.55 60.2 46.45 60.5 38.85 60.55 38.25 60 37.75 59.55 37.35 58.85 37.45 55.9005859375 37.978125 52.95 38.35 51.825390625 38.52421875 50.7 38.65 47.8505859375 38.9751953125 45 39.15
M 45.15 42
Q 47.634765625 41.833203125 50.1 41.55 50.416015625 41.5318359375 50.7 41.5
L 50.7 49.75
Q 50.5029296875 49.87421875 50.3 50 50.141015625 50.0990234375 49.95 50.2 49.8232421875 50.2912109375 49.65 50.35 49.371875 50.551171875 49.05 50.7 47.5625 51.4125 46.05 52.1 45.5326171875 52.27890625 45 52.45
L 45 42
Q 45.0693359375 42.019921875 45.15 42
M 54.05 47
Q 53.54921875 47.55234375 52.95 48.05
L 52.95 41.2
Q 55.2248046875 40.9240234375 57.5 40.55 57.2068359375 42.002734375 56.6 43.3 56.5689453125 43.3921875 56.5 43.45 55.3 45.225 54.05 47
M 18.4 41.15
Q 18.6390625 41.196484375 18.85 41.2
L 18.85 48
Q 15.21484375 44.8361328125 14.35 40.55 16.3875 40.8625 18.4 41.15
M 21.1 41.5
Q 23.2375 41.7 25.35 41.9 26.0875 41.973828125 26.8 42
L 26.8 52.45
Q 24.0974609375 51.559765625 21.7 50.1 21.6310546875 50.0505859375 21.55 50 21.321484375 49.8583984375 21.1 49.7
L 21.1 41.5
M 29.05 42.15
Q 31.899609375 42.2990234375 34.75 42.3
L 34.75 53.75
Q 34.2890625 53.7607421875 33.8 53.75 32.5 53.6125 31.15 53.45 30.0900390625 53.30859375 29.05 53.05
L 29.05 42.15
M 37.75 53.75
Q 37.377734375 53.7646484375 37 53.75
L 37 42.3
Q 39.8748046875 42.3009765625 42.75 42.15
L 42.75 53.05
Q 40.25 53.4125 37.75 53.75 Z"/>

<path fill="#FFFFFF" stroke="none" d="
M 37 53.75
Q 37.377734375 53.7646484375 37.75 53.75 40.25 53.4125 42.75 53.05
L 42.75 42.15
Q 39.8748046875 42.3009765625 37 42.3
L 37 53.75
M 34.75 42.3
Q 31.899609375 42.2990234375 29.05 42.15
L 29.05 53.05
Q 30.0900390625 53.30859375 31.15 53.45 32.5 53.6125 33.8 53.75 34.2890625 53.7607421875 34.75 53.75
L 34.75 42.3
M 25.35 41.9
Q 23.2375 41.7 21.1 41.5
L 21.1 49.7
Q 21.321484375 49.8583984375 21.55 50 21.6310546875 50.0505859375 21.7 50.1 24.0974609375 51.559765625 26.8 52.45
L 26.8 42
Q 26.0875 41.973828125 25.35 41.9
M 18.85 41.2
Q 18.6390625 41.196484375 18.4 41.15 16.3875 40.8625 14.35 40.55 15.21484375 44.8361328125 18.85 48
L 18.85 41.2
M 52.95 48.05
Q 53.54921875 47.55234375 54.05 47 55.3 45.225 56.5 43.45 56.5689453125 43.3921875 56.6 43.3 57.2068359375 42.002734375 57.5 40.55 55.2248046875 40.9240234375 52.95 41.2
L 52.95 48.05
M 50.1 41.55
Q 47.634765625 41.833203125 45.15 42 45.0693359375 42.019921875 45 42
L 45 52.45
Q 45.5326171875 52.27890625 46.05 52.1 47.5625 51.4125 49.05 50.7 49.371875 50.551171875 49.65 50.35 49.8232421875 50.2912109375 49.95 50.2 50.141015625 50.0990234375 50.3 50 50.5029296875 49.87421875 50.7 49.75
L 50.7 41.5
Q 50.416015625 41.5318359375 50.1 41.55 Z"/>
</g>

<g id="Layer0_2_FILL">
<path fill="#2F2F2F" stroke="none" d="
M 52.4 47.8
Q 47.75 44.1 41.6 44.1 35.5 44.1 30.85 47.8 28.5 49.65 27.25 51.7 26.7 52.7 26.95 53.75 27.25 54.85 28.2 55.4 29.15 56 30.25 55.7 31.35 55.45 31.95 54.5 32.4 53.45 34.35 51.9 37.5 49.5 41.6 49.55 45.75 49.55 48.85 51.95 50.45 53.15 51.3 54.5 52.05 55.8 53.65 55.8 54.4 55.8 55.05 55.45 56 54.85 56.3 53.75 56.55 52.65 56 51.7 54.75 49.65 52.4 47.8 Z"/>
</g>

<g id="Layer0_3_FILL">
<path fill="#2F2F2F" stroke="none" d="
M 97.35 47.75
Q 92.7 44.05 86.6 44.05 80.45 44.05 75.8 47.75 72.3 51.55 72.2 51.7 71.65 52.7 71.9 53.75 72.2 54.85 73.15 55.4 74.1 56 75.25 55.7 76.35 55.45 76.9 54.45
L 79.25 51.95
Q 82.4 49.5 86.6 49.5 90.7 49.5 93.85 51.9 95.45 53.1 96.25 54.45 97.05 55.8 98.6 55.8 99.3 55.8 100 55.4 100.95 54.85 101.25 53.75 101.5 52.65 100.95 51.7 99.7 49.65 97.35 47.75 Z"/>
</g>
</defs>

<g id="Layer_1">
<g transform="matrix( 0.5625, 0, 0, 0.5625, 0,0) ">
<use xlink:href="#Layer0_0_FILL"/>
</g>

<g transform="matrix( 1, 0, 0, 1, 0,0) ">
<use xlink:href="#Layer0_1_FILL"/>
</g>

<g transform="matrix( 0.5625, 0, 0, 0.5625, 0,0) ">
<use xlink:href="#Layer0_2_FILL"/>
</g>

<g transform="matrix( 0.5625, 0, 0, 0.5625, 0,0) ">
<use xlink:href="#Layer0_3_FILL"/>
</g>
</g>
</svg>

<svg xmlns="http://www.w3.org/2000/svg" xmlns:xlink="http://www.w3.org/1999/xlink" preserveAspectRatio="none" viewBox="0 0 72 72"><defs><path id="a" fill="#FCC21B" d="M127.65 93.35q0-27-8.5-47.05-15.6-36.65-55.3-36.65Q24.2 9.65 8.6 46.3.1 66.35.1 93.35q0 10.4 18.7 17.7 18.65 7.35 45.05 7.35 26.45 0 45.1-7.35 18.7-7.3 18.7-17.7z"/><g id="b"><path fill="#2F2F2F" d="M45 39.15q-1.125.105-2.25.15-2.874.177-5.75.2-1.125.01-2.25 0-.512-.005-1.05-.05-2.312-.006-4.65-.15-1.125-.045-2.25-.15-2.137-.163-4.3-.35-2.324-.245-4.7-.6-2.175-.325-4.4-.7-.19-.013-.4-.05-.7-.1-1.15.3-.55.45-.5 1.1.3 7.6 7.35 12.7.075.054.15.1 1.084.777 2.25 1.4.91.537 1.85.95 1.688.65 3.35 1.25.25.105.5.15 1.102.326 2.25.55 2.708.545 5.7.6.545.05 1.1.05H36q.791 0 1.55-.05 2.613-.275 5.2-.6 1.15-.199 2.25-.5 3.048-.85 5.7-2.35 1.163-.61 2.25-1.4.126-.06.25-.15 7-5.1 7.3-12.7.05-.6-.5-1.1-.45-.4-1.15-.3-2.95.528-5.9.9-1.125.174-2.25.3-2.85.325-5.7.5m.15 2.85q2.485-.167 4.95-.45.316-.018.6-.05v8.25l-.4.25q-.159.099-.35.2-.127.091-.3.15-.278.201-.6.35-1.487.712-3 1.4-.517.179-1.05.35V42q.07.02.15 0m8.9 5q-.5.552-1.1 1.05V41.2q2.275-.276 4.55-.65-.293 1.453-.9 2.75-.031.092-.1.15-1.2 1.775-2.45 3.55M18.4 41.15q.24.046.45.05V48q-3.635-3.164-4.5-7.45 2.037.313 4.05.6m2.7.35q2.137.2 4.25.4.737.074 1.45.1v10.45q-2.703-.89-5.1-2.35-.069-.05-.15-.1-.229-.142-.45-.3v-8.2m7.95.65q2.85.149 5.7.15v11.45q-.46.01-.95 0-1.3-.138-2.65-.3-1.06-.141-2.1-.4v-10.9m8.7 11.6q-.372.015-.75 0V42.3q2.875.001 5.75-.15v10.9q-2.5.363-5 .7z"/><path fill="#FFF" d="M37 53.75q.378.015.75 0 2.5-.337 5-.7v-10.9q-2.875.151-5.75.15v11.45M34.75 42.3q-2.85-.001-5.7-.15v10.9q1.04.259 2.1.4 1.35.162 2.65.3.49.01.95 0V42.3m-9.4-.4q-2.113-.2-4.25-.4v8.2q.221.158.45.3.081.05.15.1 2.397 1.46 5.1 2.35V42q-.713-.026-1.45-.1m-6.5-.7q-.21-.004-.45-.05-2.012-.288-4.05-.6.865 4.286 4.5 7.45v-6.8m34.1 6.85q.6-.498 1.1-1.05 1.25-1.775 2.45-3.55.069-.058.1-.15.607-1.297.9-2.75-2.275.374-4.55.65v6.85m-2.85-6.5q-2.465.283-4.95.45-.08.02-.15 0v10.45q.533-.171 1.05-.35 1.513-.688 3-1.4.322-.149.6-.35.173-.059.3-.15.191-.101.35-.2l.4-.25V41.5q-.284.032-.6.05z"/></g><path id="c" fill="#2F2F2F" d="M52.4 47.8q-4.65-3.7-10.8-3.7-6.1 0-10.75 3.7-2.35 1.85-3.6 3.9-.55 1-.3 2.05.3 1.1 1.25 1.65.95.6 2.05.3 1.1-.25 1.7-1.2.45-1.05 2.4-2.6 3.15-2.4 7.25-2.35 4.15 0 7.25 2.4 1.6 1.2 2.45 2.55.75 1.3 2.35 1.3.75 0 1.4-.35.95-.6 1.25-1.7.25-1.1-.3-2.05-1.25-2.05-3.6-3.9z"/><path id="d" fill="#2F2F2F" d="M97.35 47.75q-4.65-3.7-10.75-3.7-6.15 0-10.8 3.7-3.5 3.8-3.6 3.95-.55 1-.3 2.05.3 1.1 1.25 1.65.95.6 2.1.3 1.1-.25 1.65-1.25l2.35-2.5q3.15-2.45 7.35-2.45 4.1 0 7.25 2.4 1.6 1.2 2.4 2.55.8 1.35 2.35 1.35.7 0 1.4-.4.95-.55 1.25-1.65.25-1.1-.3-2.05-1.25-2.05-3.6-3.95z"/></defs><use transform="scale(.5625)" xlink:href="#a"/><use xlink:href="#b"/><use transform="scale(.5625)" xlink:href="#c"/><use transform="scale(.5625)" xlink:href="#d"/></svg>
